launcher/android/assets/skins/day/svg/images-icon.svg

<svg enable-background="new 0 0 259.20 259.20" height="259.2" viewBox="0 0 259.2 259.2" width="259.2" xmlns="http://www.w3.org/2000/svg" xmlns:xlink="http://www.w3.org/1999/xlink"><linearGradient id="a" gradientTransform="matrix(.378468916134 .925614001364 -.925614001364 .378468916134 .151204659364 -.39393525547)" gradientUnits="objectBoundingBox" x1=".368936" x2="1.56675" y1="-.0843766" y2="-.0843766"><stop offset=".00930233" stop-color="#847bf5"/><stop offset="1" stop-color="#94f5c9"/></linearGradient><linearGradient id="b" gradientTransform="matrix(.60658737643 .795016826712 -.795016826712 .60658737643 -.586811593907 -.655704307803)" gradientUnits="objectBoundingBox" x1=".369125" x2="2.78757" y1="-.920773" y2="-.920773"><stop offset=".00465116" stop-color="#77e75d"/><stop offset="1" stop-color="#0a7007"/></linearGradient><linearGradient id="c" gradientTransform="matrix(.320330908447 .947305710472 -.947305710472 .320330908447 .192176522834 -.378090811169)" gradientUnits="objectBoundingBox" x1=".359575" x2="1.60108" y1="-.0551204" y2="-.0551204"><stop offset=".00930233" stop-color="#3e4dab"/><stop offset="1" stop-color="#7081bd"/></linearGradient><linearGradient id="d"><stop offset="0" stop-color="#bbd9c2"/><stop offset="1" stop-color="#e0d0d0"/></linearGradient><linearGradient id="e" gradientTransform="matrix(-.368002582418 -.929824768079 .929824768079 -.368002582418 -.119082429682 2.022660245949)" gradientUnits="objectBoundingBox" x1=".627855" x2="1.76069" xlink:href="#d" y1="1.0518" y2="1.0518"/><linearGradient id="f" gradientTransform="matrix(.966080400875 .258241474295 -.258241474295 .966080400875 .082994744793 -.010901292264)" gradientUnits="objectBoundingBox" x1=".082995" x2=".999094" y1=".310483" y2=".310483"><stop offset=".0139535" stop-color="#490202"/><stop offset=".367442" stop-color="#f80707"/><stop offset="1" stop-color="#310c05"/></linearGradient><linearGradient id="g" gradientTransform="matrix(.910751516551 .412954809996 -.412954809996 .910751516551 .170765533746 -.035096098868)" gradientUnits="objectBoundingBox" x1=".166578" x2="1.00852" y1=".37752" y2=".37752"><stop offset=".0186047" stop-color="#8a78a1" stop-opacity=".101961"/><stop offset=".372093" stop-color="#e0e3ea" stop-opacity=".815686"/><stop offset="1" stop-color="#050731" stop-opacity=".101961"/></linearGradient><linearGradient id="h" gradientTransform="matrix(-.288426795772 .957501949596 -.957501949596 -.288426795772 1.074873187955 -.650914330191)" gradientUnits="objectBoundingBox" x1=".779302" x2="1.67236" y1=".0739423" y2=".0739423"><stop offset=".0186047" stop-color="#133ed9" stop-opacity=".611765"/><stop offset=".372093" stop-color="#5a6fa1" stop-opacity=".384314"/><stop offset="1" stop-color="#050731" stop-opacity=".101961"/></linearGradient><linearGradient id="i" gradientTransform="matrix(.405627173033 -.914038618712 .914038618712 .405627173033 -.725945646325 .935148024404)" gradientUnits="objectBoundingBox" x1=".356072" x2="1.44628" xlink:href="#d" y1="1.02576" y2="1.02576"/><linearGradient id="j"><stop offset=".00465116" stop-color="#380101"/><stop offset=".311628" stop-color="#150202"/><stop offset=".599998" stop-color="#150101"/><stop offset="1" stop-color="#621616"/></linearGradient><linearGradient id="k" gradientTransform="matrix(-.651151534423 -.758947744722 .758947744722 -.651151534423 .656291987953 2.152222999278)" gradientUnits="objectBoundingBox" x1=".822778" x2="1.89058" xlink:href="#j" y1=".92528" y2=".92528"/><linearGradient id="l" gradientTransform="matrix(-.651151534423 -.758947744722 .758947744722 -.651151534423 .656291987953 2.152222999278)" gradientUnits="objectBoundingBox" x1=".822778" x2="1.89058" y1=".92528" y2=".92528"><stop offset=".00465116" stop-color="#723711"/><stop offset=".172093" stop-color="#783a11"/><stop offset=".274419" stop-color="#c75f1c"/><stop offset=".432558" stop-color="#dc691f"/><stop offset=".516279" stop-color="#9c6a60"/><stop offset=".972093" stop-color="#936b6b"/></linearGradient><linearGradient id="m" gradientTransform="matrix(.894942265897 -.446181959195 .446181959195 .894942265897 -.266977405664 .138652479307)" gradientUnits="objectBoundingBox" x1=".160941" x2="1.34268" xlink:href="#j" y1=".636255" y2=".636255"/><linearGradient id="n" gradientTransform="matrix(-.648194449144 -.761474855854 .761474855854 -.648194449144 .620647646223 1.996812609277)" gradientUnits="objectBoundingBox" x1=".771593" x2="1.6656" xlink:href="#d" y1=".855035" y2=".855035"/><linearGradient id="o" gradientTransform="matrix(-.70549901716 -.708710897888 .708710897888 -.70549901716 .746444710881 2.485421064867)" gradientUnits="objectBoundingBox" x1=".889624" x2="2.31153" y1="1.08762" y2="1.08762"><stop offset=".367442" stop-color="#292c31" stop-opacity="0"/><stop offset=".488372" stop-color="#292c31" stop-opacity=".584314"/><stop offset=".623256" stop-color="#6b6c7a" stop-opacity="0"/></linearGradient><radialGradient id="p" cx="153.484" cy="91.905" gradientTransform="matrix(.702293578509 -.711887441654 .711887441654 .702293578509 -19.732661510291 136.62438057791)" gradientUnits="userSpaceOnUse" r="23.7712"><stop offset=".00465116" stop-color="#c0baba" stop-opacity=".360784"/><stop offset=".972093" stop-color="#936b6b" stop-opacity=".258824"/></radialGradient><radialGradient id="q" cx="118.392" cy="134.527" gradientTransform="matrix(.799554622942 -.600593377363 .600593377363 .799554622942 -57.064696515937 98.070922671944)" gradientUnits="userSpaceOnUse" r="26.349"><stop offset=".00465116" stop-color="#f80f0f"/><stop offset=".972093" stop-color="#936b6b"/></radialGradient><g stroke-linejoin="round"><g stroke-width=".2"><path d="m14.6874 119.58 150.7916-44.9033 25.771 83.6823-150.7918 44.903z" fill="url(#a)"/><path d="m40.2298 158.08 14.6105 5.604 21.9277 12.928 27.793-2.394 44.68-13.305 33.454-15.392-1.101 14.356-95.1221 33.303-42.4065 11.722-13.5185-39.414z" fill="url(#b)"/><path d="m38.5733 137.758 2.7368-18.009-7.8545-3.091-16.1064 2.986.8016 16.051z" fill="url(#c)"/></g><path d="m12.5344 117.458 155.1166-46.1907 27.571 89.5297-155.1165 46.19z" fill="none" stroke="url(#e)" stroke-width="7"/><path d="m91.1275 35.0182 146.3885 50.1726-29.135 82.1982-146.3888-50.173z" fill="url(#f)" stroke-width=".2"/><path d="m129.823 46.9047-24.923 29.5237-17.0665 45.5176 19.4325 14.915 38.154 10.783 19.214-39.735 1.95-50.2394z" fill="url(#g)" stroke-width=".2"/><path d="m136.95 45.2194-30.141 44.2461 45.109 21.4225 12.087-7.782.519-47.5187z" fill="url(#h)" stroke-width=".2"/><path d="m88.8249 30.3305 153.0431 52.4534-31.31 88.3321-153.0428-52.453z" fill="none" stroke="url(#i)" stroke-width="7"/><path d="m45.8616 157.725 122.0494-97.0058 54.589 66.6288-122.05 97.006z" fill="url(#l)" stroke="url(#k)" stroke-linecap="round" stroke-width=".2"/><path d="m57.5545 159.544c6.8896 8.409 13.2188 18.251 21.9831 24.756 5.1916 3.853 4.1932 13.136 9.3848 16.989 1.9279 1.431 9.6039 7.606 11.9116 8.313 1.792.549 6.617 8.076 7.012-1.127.024-.578 6.906-2.679 7.489-2.62.584.06-5.73-7.174-5.171-7.003.626.192 11.359-9.524 12.015-9.549.83-.03-4.798 14.811-4.098 14.37 6.731-4.238 9.608-9.489 11.807-10.495 5.358-2.453.747-4.622 6.105-7.076.596-.272 1.269-.393 1.925-.418.83-.031 1.664.431 2.476.255.574-.125.915-.728 1.373-1.091.686-.546 1.373-1.092 2.059-1.637 2.289-1.819 4.577-3.638 6.866-5.457 7.094-5.638 16.518-15.351 23.612-20.99 12.131-9.642 24.383-13.823 32.818-24.973" fill="none" stroke="url(#m)" stroke-linecap="round" stroke-width="25"/><path d="m40.9101 157.215 126.3219-100.4011 59.552 72.6861-126.323 100.401z" fill="none" stroke="url(#n)" stroke-width="7"/><path d="m70.0862 155.209 7.9646-14.665 17.9201-13.409 7.5841 1.473 16.122-9.896 16.109-16.138 4.108-9.5155 16.328-9.6445 11.742-8.4985 7.373-.8592 2.337 8.5603-5.453 6.8345-11.944 10.3267-13.505 3.2322-15.907 14.311-4.588 1.145-7.918 12.128-19.4098 16.26-11.251-4.393-7.8167 11.214-3.2373 5.907-3.0935.375z" fill="url(#o)" stroke-width=".2"/><path d="m170.519 85.5048.328-9.0601-20.141 5.5499-1.717 5.6682.341 9.823-9.185 14.4732 13.27-9.043 16.39-11.1702z" fill="url(#p)" stroke-width=".2"/><path d="m107.089 120.73c10.996-8.74 24.969-9.648 31.213-2.027 6.243 7.619 2.39 20.881-8.606 29.621-10.996 8.739-24.97 9.647-31.2131 2.027-6.2433-7.621-2.3904-20.882 8.6061-29.621z" fill="url(#q)" stroke-linecap="round" stroke-width=".2"/></g></svg>

﻿<?xml version="1.0" encoding="utf-8"?>
<!DOCTYPE svg PUBLIC "-//W3C//DTD SVG 1.1//EN" "http://www.w3.org/Graphics/SVG/1.1/DTD/svg11.dtd">
<svg xmlns="http://www.w3.org/2000/svg" xmlns:xlink="http://www.w3.org/1999/xlink" version="1.1" baseProfile="full" width="259.2" height="259.2" viewBox="0 0 259.20 259.20" enable-background="new 0 0 259.20 259.20" xml:space="preserve">
	<g>
		<linearGradient id="SVGID_Fill1_" gradientUnits="objectBoundingBox" x1="0.368936" y1="-0.0843766" x2="1.56675" y2="-0.0843766" gradientTransform="rotate(67.761124 0.368936 -0.084377)">
			<stop offset="0.00930233" stop-color="#847BF5" stop-opacity="1"/>
			<stop offset="1" stop-color="#94F5C9" stop-opacity="1"/>
		</linearGradient>
		<path fill="url(#SVGID_Fill1_)" stroke-width="0.2" stroke-linejoin="round" d="M 14.6874,119.58L 165.479,74.6767L 191.25,158.359L 40.4582,203.262L 14.6874,119.58 Z "/>
		<linearGradient id="SVGID_Fill2_" gradientUnits="objectBoundingBox" x1="0.369125" y1="-0.920773" x2="2.78757" y2="-0.920773" gradientTransform="rotate(52.656845 0.369125 -0.920773)">
			<stop offset="0.00465116" stop-color="#77E75D" stop-opacity="1"/>
			<stop offset="1" stop-color="#0A7007" stop-opacity="1"/>
		</linearGradient>
		<path fill="url(#SVGID_Fill2_)" stroke-width="0.2" stroke-linejoin="round" d="M 40.2298,158.08L 54.8403,163.684L 76.768,176.612L 104.561,174.218L 149.241,160.913L 182.695,145.521L 181.594,159.877L 86.4719,193.18L 44.0654,204.902L 30.5469,165.488L 40.2298,158.08 Z "/>
		<linearGradient id="SVGID_Fill3_" gradientUnits="objectBoundingBox" x1="0.359575" y1="-0.0551204" x2="1.60108" y2="-0.0551204" gradientTransform="rotate(71.317062 0.359575 -0.055120)">
			<stop offset="0.00930233" stop-color="#3E4DAB" stop-opacity="1"/>
			<stop offset="1" stop-color="#7081BD" stop-opacity="1"/>
		</linearGradient>
		<path fill="url(#SVGID_Fill3_)" stroke-width="0.2" stroke-linejoin="round" d="M 38.5733,137.758L 41.3101,119.749L 33.4556,116.658L 17.3492,119.644L 18.1508,135.695L 38.5733,137.758 Z "/>
		<linearGradient id="SVGID_Stroke1_" gradientUnits="objectBoundingBox" x1="0.627855" y1="1.0518" x2="1.76069" y2="1.0518" gradientTransform="rotate(248.407516 0.627855 1.051800)">
			<stop offset="0" stop-color="#BBD9C2" stop-opacity="1"/>
			<stop offset="1" stop-color="#E0D0D0" stop-opacity="1"/>
		</linearGradient>
		<path fill="none" stroke-width="7" stroke-linejoin="round" stroke="url(#SVGID_Stroke1_)" d="M 12.5344,117.458L 167.651,71.2673L 195.222,160.797L 40.1055,206.987L 12.5344,117.458 Z "/>
		<linearGradient id="SVGID_Fill4_" gradientUnits="objectBoundingBox" x1="0.082995" y1="0.310483" x2="0.999094" y2="0.310483" gradientTransform="rotate(14.965743 0.082995 0.310483)">
			<stop offset="0.0139535" stop-color="#490202" stop-opacity="1"/>
			<stop offset="0.367442" stop-color="#F80707" stop-opacity="1"/>
			<stop offset="1" stop-color="#310C05" stop-opacity="1"/>
		</linearGradient>
		<path fill="url(#SVGID_Fill4_)" stroke-width="0.2" stroke-linejoin="round" d="M 91.1275,35.0182L 237.516,85.1908L 208.381,167.389L 61.9922,117.216L 91.1275,35.0182 Z "/>
		<linearGradient id="SVGID_Fill5_" gradientUnits="objectBoundingBox" x1="0.166578" y1="0.37752" x2="1.00852" y2="0.37752" gradientTransform="rotate(24.390587 0.166578 0.377520)">
			<stop offset="0.0186047" stop-color="#8A78A1" stop-opacity="0.101961"/>
			<stop offset="0.372093" stop-color="#E0E3EA" stop-opacity="0.815686"/>
			<stop offset="1" stop-color="#050731" stop-opacity="0.101961"/>
		</linearGradient>
		<path fill="url(#SVGID_Fill5_)" stroke-width="0.2" stroke-linejoin="round" d="M 129.823,46.9047L 104.9,76.4284L 87.8335,121.946L 107.266,136.861L 145.42,147.644L 164.634,107.909L 166.584,57.6696L 129.823,46.9047 Z "/>
		<linearGradient id="SVGID_Fill6_" gradientUnits="objectBoundingBox" x1="0.779302" y1="0.0739423" x2="1.67236" y2="0.0739423" gradientTransform="rotate(106.763794 0.779302 0.073942)">
			<stop offset="0.0186047" stop-color="#133ED9" stop-opacity="0.611765"/>
			<stop offset="0.372093" stop-color="#5A6FA1" stop-opacity="0.384314"/>
			<stop offset="1" stop-color="#050731" stop-opacity="0.101961"/>
		</linearGradient>
		<path fill="url(#SVGID_Fill6_)" stroke-width="0.2" stroke-linejoin="round" d="M 136.95,45.2194L 106.809,89.4655L 151.918,110.888L 164.005,103.106L 164.524,55.5873L 136.95,45.2194 Z "/>
		<linearGradient id="SVGID_Stroke2_" gradientUnits="objectBoundingBox" x1="0.356072" y1="1.02576" x2="1.44628" y2="1.02576" gradientTransform="rotate(-66.069565 0.356072 1.025761)">
			<stop offset="0" stop-color="#BBD9C2" stop-opacity="1"/>
			<stop offset="1" stop-color="#E0D0D0" stop-opacity="1"/>
		</linearGradient>
		<path fill="none" stroke-width="7" stroke-linejoin="round" stroke="url(#SVGID_Stroke2_)" d="M 88.8249,30.3305L 241.868,82.7839L 210.558,171.116L 57.5152,118.663L 88.8249,30.3305 Z "/>
		<linearGradient id="SVGID_Stroke3_" gradientUnits="objectBoundingBox" x1="0.822778" y1="0.92528" x2="1.89058" y2="0.92528" gradientTransform="rotate(229.371521 0.822778 0.925280)">
			<stop offset="0.00465116" stop-color="#380101" stop-opacity="1"/>
			<stop offset="0.311628" stop-color="#150202" stop-opacity="1"/>
			<stop offset="0.599998" stop-color="#150101" stop-opacity="1"/>
			<stop offset="1" stop-color="#621616" stop-opacity="1"/>
		</linearGradient>
		<linearGradient id="SVGID_Fill7_" gradientUnits="objectBoundingBox" x1="0.822778" y1="0.92528" x2="1.89058" y2="0.92528" gradientTransform="rotate(229.371521 0.822778 0.925280)">
			<stop offset="0.00465116" stop-color="#723711" stop-opacity="1"/>
			<stop offset="0.172093" stop-color="#783A11" stop-opacity="1"/>
			<stop offset="0.274419" stop-color="#C75F1C" stop-opacity="1"/>
			<stop offset="0.432558" stop-color="#DC691F" stop-opacity="1"/>
			<stop offset="0.516279" stop-color="#9C6A60" stop-opacity="1"/>
			<stop offset="0.972093" stop-color="#936B6B" stop-opacity="1"/>
		</linearGradient>
		<path fill="url(#SVGID_Fill7_)" stroke-width="0.2" stroke-linecap="round" stroke-linejoin="round" stroke="url(#SVGID_Stroke3_)" d="M 45.8616,157.725L 167.911,60.7192L 222.5,127.348L 100.45,224.354L 45.8616,157.725 Z "/>
		<linearGradient id="SVGID_Stroke4_" gradientUnits="objectBoundingBox" x1="0.160941" y1="0.636255" x2="1.34268" y2="0.636255" gradientTransform="rotate(-26.498985 0.160941 0.636255)">
			<stop offset="0.00465116" stop-color="#380101" stop-opacity="1"/>
			<stop offset="0.311628" stop-color="#150202" stop-opacity="1"/>
			<stop offset="0.599998" stop-color="#150101" stop-opacity="1"/>
			<stop offset="1" stop-color="#621616" stop-opacity="1"/>
		</linearGradient>
		<path fill="none" stroke-width="25" stroke-linecap="round" stroke-linejoin="round" stroke="url(#SVGID_Stroke4_)" d="M 57.5545,159.544C 64.4441,167.953 70.7733,177.795 79.5376,184.3C 84.7292,188.153 83.7308,197.436 88.9224,201.289C 90.8503,202.72 98.5263,208.895 100.834,209.602C 102.626,210.151 107.451,217.678 107.846,208.475C 107.87,207.897 114.752,205.796 115.335,205.855C 115.919,205.915 109.605,198.681 110.164,198.852C 110.79,199.044 121.523,189.328 122.179,189.303C 123.009,189.273 117.381,204.114 118.081,203.673C 124.812,199.435 127.689,194.184 129.888,193.178C 135.246,190.725 130.635,188.556 135.993,186.102C 136.589,185.83 137.262,185.709 137.918,185.684C 138.748,185.653 139.582,186.115 140.394,185.939C 140.968,185.814 141.309,185.211 141.767,184.848C 142.453,184.302 143.14,183.756 143.826,183.211C 146.115,181.392 148.403,179.573 150.692,177.754C 157.786,172.116 167.21,162.403 174.304,156.764C 186.435,147.122 198.687,142.941 207.122,131.791"/>
		<linearGradient id="SVGID_Stroke5_" gradientUnits="objectBoundingBox" x1="0.771593" y1="0.855035" x2="1.6656" y2="0.855035" gradientTransform="rotate(229.594391 0.771593 0.855035)">
			<stop offset="0" stop-color="#BBD9C2" stop-opacity="1"/>
			<stop offset="1" stop-color="#E0D0D0" stop-opacity="1"/>
		</linearGradient>
		<path fill="none" stroke-width="7" stroke-linejoin="round" stroke="url(#SVGID_Stroke5_)" d="M 40.9101,157.215L 167.232,56.8139L 226.784,129.5L 100.461,229.901L 40.9101,157.215 Z "/>
		<linearGradient id="SVGID_Fill8_" gradientUnits="objectBoundingBox" x1="0.889624" y1="1.08762" x2="2.31153" y2="1.08762" gradientTransform="rotate(225.130127 0.889624 1.087620)">
			<stop offset="0.367442" stop-color="#292C31" stop-opacity="0"/>
			<stop offset="0.488372" stop-color="#292C31" stop-opacity="0.584314"/>
			<stop offset="0.623256" stop-color="#6B6C7A" stop-opacity="0"/>
		</linearGradient>
		<path fill="url(#SVGID_Fill8_)" stroke-width="0.2" stroke-linejoin="round" d="M 70.0862,155.209L 78.0508,140.544L 95.9709,127.135L 103.555,128.608L 119.677,118.712L 135.786,102.574L 139.894,93.0585L 156.222,83.414L 167.964,74.9155L 175.337,74.0563L 177.674,82.6166L 172.221,89.4511L 160.277,99.7778L 146.772,103.01L 130.865,117.321L 126.277,118.466L 118.359,130.594L 98.9492,146.854L 87.6982,142.461L 79.8815,153.675L 76.6442,159.582L 73.5507,159.957L 70.0862,155.209 Z "/>
		<radialGradient id="SVGID_Fill9_" cx="153.484" cy="91.905" r="23.7712" gradientUnits="userSpaceOnUse" gradientTransform="rotate(-45.388691 153.484497 91.904953)">
			<stop offset="0.00465116" stop-color="#C0BABA" stop-opacity="0.360784"/>
			<stop offset="0.972093" stop-color="#936B6B" stop-opacity="0.258824"/>
		</radialGradient>
		<path fill="url(#SVGID_Fill9_)" stroke-width="0.2" stroke-linejoin="round" d="M 170.519,85.5048L 170.847,76.4447L 150.706,81.9946L 148.989,87.6628L 149.33,97.4858L 140.145,111.959L 153.415,102.916L 169.805,91.7458L 170.519,85.5048 Z "/>
		<radialGradient id="SVGID_Fill10_" cx="118.392" cy="134.527" r="26.349" gradientUnits="userSpaceOnUse" gradientTransform="rotate(-36.912407 118.392334 134.526779)">
			<stop offset="0.00465116" stop-color="#F80F0F" stop-opacity="1"/>
			<stop offset="0.972093" stop-color="#936B6B" stop-opacity="1"/>
		</radialGradient>
		<path fill="url(#SVGID_Fill10_)" stroke-width="0.2" stroke-linecap="round" stroke-linejoin="round" d="M 107.089,120.73C 118.085,111.99 132.058,111.082 138.302,118.703C 144.545,126.322 140.692,139.584 129.696,148.324C 118.7,157.063 104.726,157.971 98.4829,150.351C 92.2396,142.73 96.0925,129.469 107.089,120.73 Z "/>
	</g>
</svg>
